X:1
T:Title
%%score { 1 | ( 2 3 ) }
L:1/8
Q:1/4=100
M:6/8
K:E
V:1 treble nm="Grand Piano"
V:2 bass 
V:3 bass 
V:1
 BcB G2 E | [DG]2 [DF] E3 | ABc BGE | [DF]6 | BcB G2 B | .[A,CA]2 [A,^B,F] [G,=B,G]2 [B,EG] | %6
w: J.~Lincoln~Hall * * * *||||||
 .[^A,CF]2 [A,CD] [=A,DG]2 [A,DF] | [G,E]6 | [Ge][Bd][Ac] [GB]2 [EG] | [FB]2 [FA] G3 | cde B2 G | %11
w: |||||
 [EG]2 [EF] [DF]3 | BcB G2 B | .[A,CA]2 [A,^B,F] G3 | cdc B2 E | [DG]2 [DF] E3 |] %16
w: |||||
V:2
 [E,G,E][E,A,E][E,G,E] [E,B,E]2 [E,G,] | [B,,B,]2 [B,,A,] [E,G,]3 | %2
 [A,CE][A,B,E][A,E] [B,E]-[E,B,E][C,^A,] | [B,,B,]6 | [E,G,E][E,A,E][E,G,E] [E,B,E]2 [E,G,=D] | %5
 z EA,, E,2 E, | z CC, B,,2 B,, | E,6 | [E,B,][E,C][E,D] [E,E]2 [E,B,] | [D,B,]2 [D,B,] [E,B,E]3 | %10
 [A,E][A,B,E][A,CE] [G,B,E]2 [E,B,E] | [C,^A,]2 [C,A,] [B,,=A,]3 | %12
 [E,G,E][E,A,E][E,G,E] [E,B,E]2 [E,G,=D] | z EA,, [E,G,B,]3 | %14
 [A,E][A,F][K:bass][A,E] [E,G,E]2 [C,^A,] | [B,,A,]2 [B,,A,] [E,G,]3 |] %16
V:3
 x6 | x6 | z3 .G,3 | x6 | x6 | .A,,3 z3 | .C,3 z3 | x6 | x6 | x6 | x6 | x6 | x6 | .A,,3 z3 | %14
 x2[K:bass] x4 | x6 |] %16

